;FLAVOR:Marlin
M140 S55
M105
M190 S55
M104 S215
M105
M109 S215
M106 S40
M82 ;absolute extrusion mode
; Ender 3 Custom Start G-code
G92 E0 ; Reset Extruder
G28 ; Home all axes
G1 Z2.0 F3000 ; Move Z Axis up little to prevent scratching of Heat Bed
G1 X10.1 Y20 Z0.3 F5000.0 ; Move to start position
G1 X10.1 Y200.0 Z0.3 F1500.0 E15 ; Draw the first line
G1 X10.4 Y200.0 Z0.3 F5000.0 ; Move to side a little
G1 X10.4 Y20 Z0.3 F1500.0 E30 ; Draw the second line
G92 E0 ; Reset Extruder
G1 Z2.0 F3000 ; Move Z Axis up little to prevent scratching of Heat Bed
G1 Z0.5 F5000.0 ; Move over to prevent blob squish
G92 E0
M83 ;relative extrusion mode
G1 E-5.0 F2700 ;retract
G1 X120.0 Y100.0 F2700
G1 Z0 F2700
G1 E5.0 F2700 ;unretract
G1 X122.091 Y100.11 Z0.3 E0.104 F1080 ;slope
G1 X124.158 Y100.437 Z0.3 E0.104 F1080 ;straight
G1 X126.18 Y100.979 Z0.3 E0.104 F1080 ;straight
G1 X128.135 Y101.729 Z0.3 E0.104 F1080 ;straight
G1 X130.0 Y102.679 Z0.3 E0.104 F1080 ;straight
G1 X131.756 Y103.82 Z0.3 E0.104 F1080 ;straight
G1 X133.383 Y105.137 Z0.3 E0.104 F1080 ;straight
G1 X134.863 Y106.617 Z0.3 E0.104 F1080 ;straight
G1 X136.18 Y108.244 Z0.3 E0.104 F1080 ;straight
G1 X137.321 Y110.0 Z0.3 E0.104 F1080 ;straight
G1 X138.271 Y111.865 Z0.3 E0.104 F1080 ;straight
G1 X139.021 Y113.82 Z0.3 E0.104 F1080 ;straight
G1 X139.563 Y115.842 Z0.3 E0.104 F1080 ;straight
G1 X139.89 Y117.909 Z0.3 E0.104 F1080 ;straight
G1 X140.0 Y120.0 Z0.3 E0.104 F1080 ;straight
G1 X139.89 Y122.091 Z0.3 E0.104 F1080 ;straight
G1 X139.563 Y124.158 Z0.3 E0.104 F1080 ;straight
G1 X139.021 Y126.18 Z0.3 E0.104 F1080 ;straight
G1 X138.271 Y128.135 Z0.3 E0.104 F1080 ;straight
G1 X137.321 Y130.0 Z0.3 E0.104 F1080 ;straight
G1 X136.18 Y131.756 Z0.3 E0.104 F1080 ;straight
G1 X134.863 Y133.383 Z0.3 E0.104 F1080 ;straight
G1 X133.383 Y134.863 Z0.3 E0.104 F1080 ;straight
G1 X131.756 Y136.18 Z0.3 E0.104 F1080 ;straight
G1 X130.0 Y137.321 Z0.3 E0.104 F1080 ;straight
G1 X128.135 Y138.271 Z0.3 E0.104 F1080 ;straight
G1 X126.18 Y139.021 Z0.3 E0.104 F1080 ;straight
G1 X124.158 Y139.563 Z0.3 E0.104 F1080 ;straight
G1 X122.091 Y139.89 Z0.3 E0.104 F1080 ;straight
G1 X120.0 Y140.0 Z0.3 E0.104 F1080 ;straight
G1 X117.909 Y139.89 Z0.3 E0.104 F1080 ;straight
G1 X115.842 Y139.563 Z0.3 E0.104 F1080 ;straight
G1 X113.82 Y139.021 Z0.3 E0.104 F1080 ;straight
G1 X111.865 Y138.271 Z0.3 E0.104 F1080 ;straight
G1 X110.0 Y137.321 Z0.3 E0.104 F1080 ;straight
G1 X108.244 Y136.18 Z0.3 E0.104 F1080 ;straight
G1 X106.617 Y134.863 Z0.3 E0.104 F1080 ;straight
G1 X105.137 Y133.383 Z0.3 E0.104 F1080 ;straight
G1 X103.82 Y131.756 Z0.3 E0.104 F1080 ;straight
G1 X102.679 Y130.0 Z0.3 E0.104 F1080 ;straight
G1 X101.729 Y128.135 Z0.3 E0.104 F1080 ;straight
G1 X100.979 Y126.18 Z0.3 E0.104 F1080 ;straight
G1 X100.437 Y124.158 Z0.3 E0.104 F1080 ;straight
G1 X100.11 Y122.091 Z0.3 E0.104 F1080 ;straight
G1 X100.0 Y120.0 Z0.3 E0.104 F1080 ;straight
G1 X100.11 Y117.909 Z0.3 E0.104 F1080 ;straight
G1 X100.437 Y115.842 Z0.3 E0.104 F1080 ;straight
G1 X100.979 Y113.82 Z0.3 E0.104 F1080 ;straight
G1 X101.729 Y111.865 Z0.3 E0.104 F1080 ;straight
G1 X102.679 Y110.0 Z0.3 E0.104 F1080 ;straight
G1 X103.82 Y108.244 Z0.3 E0.104 F1080 ;straight
G1 X105.137 Y106.617 Z0.3 E0.104 F1080 ;straight
G1 X106.617 Y105.137 Z0.3 E0.104 F1080 ;straight
G1 X108.244 Y103.82 Z0.3 E0.104 F1080 ;straight
G1 X110.0 Y102.679 Z0.3 E0.104 F1080 ;straight
G1 X111.865 Y101.729 Z0.3 E0.104 F1080 ;straight
G1 X113.82 Y100.979 Z0.3 E0.104 F1080 ;straight
G1 X115.842 Y100.437 Z0.3 E0.104 F1080 ;straight
G1 X117.909 Y100.11 Z0.3 E0.104 F1080 ;straight
G1 X120.0 Y100.0 Z0.3 E0.104 F1080 ;straight
G1 X122.091 Y100.11 Z0.3 E0.0 F1080 ;slope
G1 E-5.0 F2700 ;retract
G1 X120.0 Y99.6 F2700
G1 Z0 F2700
G1 E5.0 F2700 ;unretract
G1 X122.132 Y99.712 Z0.3 E0.107 F1080 ;slope
G1 X124.241 Y100.046 Z0.3 E0.107 F1080 ;straight
G1 X126.304 Y100.598 Z0.3 E0.107 F1080 ;straight
G1 X128.297 Y101.364 Z0.3 E0.107 F1080 ;straight
G1 X130.2 Y102.333 Z0.3 E0.107 F1080 ;straight
G1 X131.991 Y103.496 Z0.3 E0.107 F1080 ;straight
G1 X133.65 Y104.84 Z0.3 E0.107 F1080 ;straight
G1 X135.16 Y106.35 Z0.3 E0.107 F1080 ;straight
G1 X136.504 Y108.009 Z0.3 E0.107 F1080 ;straight
G1 X137.667 Y109.8 Z0.3 E0.107 F1080 ;straight
G1 X138.636 Y111.703 Z0.3 E0.107 F1080 ;straight
G1 X139.402 Y113.696 Z0.3 E0.107 F1080 ;straight
G1 X139.954 Y115.759 Z0.3 E0.107 F1080 ;straight
G1 X140.288 Y117.868 Z0.3 E0.107 F1080 ;straight
G1 X140.4 Y120.0 Z0.3 E0.107 F1080 ;straight
G1 X140.288 Y122.132 Z0.3 E0.107 F1080 ;straight
G1 X139.954 Y124.241 Z0.3 E0.107 F1080 ;straight
G1 X139.402 Y126.304 Z0.3 E0.107 F1080 ;straight
G1 X138.636 Y128.297 Z0.3 E0.107 F1080 ;straight
G1 X137.667 Y130.2 Z0.3 E0.107 F1080 ;straight
G1 X136.504 Y131.991 Z0.3 E0.107 F1080 ;straight
G1 X135.16 Y133.65 Z0.3 E0.107 F1080 ;straight
G1 X133.65 Y135.16 Z0.3 E0.107 F1080 ;straight
G1 X131.991 Y136.504 Z0.3 E0.107 F1080 ;straight
G1 X130.2 Y137.667 Z0.3 E0.107 F1080 ;straight
G1 X128.297 Y138.636 Z0.3 E0.107 F1080 ;straight
G1 X126.304 Y139.402 Z0.3 E0.107 F1080 ;straight
G1 X124.241 Y139.954 Z0.3 E0.107 F1080 ;straight
G1 X122.132 Y140.288 Z0.3 E0.107 F1080 ;straight
G1 X120.0 Y140.4 Z0.3 E0.107 F1080 ;straight
G1 X117.868 Y140.288 Z0.3 E0.107 F1080 ;straight
G1 X115.759 Y139.954 Z0.3 E0.107 F1080 ;straight
G1 X113.696 Y139.402 Z0.3 E0.107 F1080 ;straight
G1 X111.703 Y138.636 Z0.3 E0.107 F1080 ;straight
G1 X109.8 Y137.667 Z0.3 E0.107 F1080 ;straight
G1 X108.009 Y136.504 Z0.3 E0.107 F1080 ;straight
G1 X106.35 Y135.16 Z0.3 E0.107 F1080 ;straight
G1 X104.84 Y133.65 Z0.3 E0.107 F1080 ;straight
G1 X103.496 Y131.991 Z0.3 E0.107 F1080 ;straight
G1 X102.333 Y130.2 Z0.3 E0.107 F1080 ;straight
G1 X101.364 Y128.297 Z0.3 E0.107 F1080 ;straight
G1 X100.598 Y126.304 Z0.3 E0.107 F1080 ;straight
G1 X100.046 Y124.241 Z0.3 E0.107 F1080 ;straight
G1 X99.712 Y122.132 Z0.3 E0.107 F1080 ;straight
G1 X99.6 Y120.0 Z0.3 E0.107 F1080 ;straight
G1 X99.712 Y117.868 Z0.3 E0.107 F1080 ;straight
G1 X100.046 Y115.759 Z0.3 E0.107 F1080 ;straight
G1 X100.598 Y113.696 Z0.3 E0.107 F1080 ;straight
G1 X101.364 Y111.703 Z0.3 E0.107 F1080 ;straight
G1 X102.333 Y109.8 Z0.3 E0.107 F1080 ;straight
G1 X103.496 Y108.009 Z0.3 E0.107 F1080 ;straight
G1 X104.84 Y106.35 Z0.3 E0.107 F1080 ;straight
G1 X106.35 Y104.84 Z0.3 E0.107 F1080 ;straight
G1 X108.009 Y103.496 Z0.3 E0.107 F1080 ;straight
G1 X109.8 Y102.333 Z0.3 E0.107 F1080 ;straight
G1 X111.703 Y101.364 Z0.3 E0.107 F1080 ;straight
G1 X113.696 Y100.598 Z0.3 E0.107 F1080 ;straight
G1 X115.759 Y100.046 Z0.3 E0.107 F1080 ;straight
G1 X117.868 Y99.712 Z0.3 E0.107 F1080 ;straight
G1 X120.0 Y99.6 Z0.3 E0.107 F1080 ;straight
G1 X122.132 Y99.712 Z0.3 E0.0 F1080 ;slope
G1 E-5.0 F2700 ;retract
G1 X120.0 Y99.2 F2700
G1 Z0 F2700
G1 E5.0 F2700 ;unretract
G1 X122.174 Y99.314 Z0.3 E0.109 F1080 ;slope
G1 X124.325 Y99.655 Z0.3 E0.109 F1080 ;straight
G1 X126.428 Y100.218 Z0.3 E0.109 F1080 ;straight
G1 X128.46 Y100.998 Z0.3 E0.109 F1080 ;straight
G1 X130.4 Y101.987 Z0.3 E0.109 F1080 ;straight
G1 X132.226 Y103.172 Z0.3 E0.109 F1080 ;straight
G1 X133.918 Y104.543 Z0.3 E0.109 F1080 ;straight
G1 X135.457 Y106.082 Z0.3 E0.109 F1080 ;straight
G1 X136.828 Y107.774 Z0.3 E0.109 F1080 ;straight
G1 X138.013 Y109.6 Z0.3 E0.109 F1080 ;straight
G1 X139.002 Y111.54 Z0.3 E0.109 F1080 ;straight
G1 X139.782 Y113.572 Z0.3 E0.109 F1080 ;straight
G1 X140.345 Y115.675 Z0.3 E0.109 F1080 ;straight
G1 X140.686 Y117.826 Z0.3 E0.109 F1080 ;straight
G1 X140.8 Y120.0 Z0.3 E0.109 F1080 ;straight
G1 X140.686 Y122.174 Z0.3 E0.109 F1080 ;straight
G1 X140.345 Y124.325 Z0.3 E0.109 F1080 ;straight
G1 X139.782 Y126.428 Z0.3 E0.109 F1080 ;straight
G1 X139.002 Y128.46 Z0.3 E0.109 F1080 ;straight
G1 X138.013 Y130.4 Z0.3 E0.109 F1080 ;straight
G1 X136.828 Y132.226 Z0.3 E0.109 F1080 ;straight
G1 X135.457 Y133.918 Z0.3 E0.109 F1080 ;straight
G1 X133.918 Y135.457 Z0.3 E0.109 F1080 ;straight
G1 X132.226 Y136.828 Z0.3 E0.109 F1080 ;straight
G1 X130.4 Y138.013 Z0.3 E0.109 F1080 ;straight
G1 X128.46 Y139.002 Z0.3 E0.109 F1080 ;straight
G1 X126.428 Y139.782 Z0.3 E0.109 F1080 ;straight
G1 X124.325 Y140.345 Z0.3 E0.109 F1080 ;straight
G1 X122.174 Y140.686 Z0.3 E0.109 F1080 ;straight
G1 X120.0 Y140.8 Z0.3 E0.109 F1080 ;straight
G1 X117.826 Y140.686 Z0.3 E0.109 F1080 ;straight
G1 X115.675 Y140.345 Z0.3 E0.109 F1080 ;straight
G1 X113.572 Y139.782 Z0.3 E0.109 F1080 ;straight
G1 X111.54 Y139.002 Z0.3 E0.109 F1080 ;straight
G1 X109.6 Y138.013 Z0.3 E0.109 F1080 ;straight
G1 X107.774 Y136.828 Z0.3 E0.109 F1080 ;straight
G1 X106.082 Y135.457 Z0.3 E0.109 F1080 ;straight
G1 X104.543 Y133.918 Z0.3 E0.109 F1080 ;straight
G1 X103.172 Y132.226 Z0.3 E0.109 F1080 ;straight
G1 X101.987 Y130.4 Z0.3 E0.109 F1080 ;straight
G1 X100.998 Y128.46 Z0.3 E0.109 F1080 ;straight
G1 X100.218 Y126.428 Z0.3 E0.109 F1080 ;straight
G1 X99.655 Y124.325 Z0.3 E0.109 F1080 ;straight
G1 X99.314 Y122.174 Z0.3 E0.109 F1080 ;straight
G1 X99.2 Y120.0 Z0.3 E0.109 F1080 ;straight
G1 X99.314 Y117.826 Z0.3 E0.109 F1080 ;straight
G1 X99.655 Y115.675 Z0.3 E0.109 F1080 ;straight
G1 X100.218 Y113.572 Z0.3 E0.109 F1080 ;straight
G1 X100.998 Y111.54 Z0.3 E0.109 F1080 ;straight
G1 X101.987 Y109.6 Z0.3 E0.109 F1080 ;straight
G1 X103.172 Y107.774 Z0.3 E0.109 F1080 ;straight
G1 X104.543 Y106.082 Z0.3 E0.109 F1080 ;straight
G1 X106.082 Y104.543 Z0.3 E0.109 F1080 ;straight
G1 X107.774 Y103.172 Z0.3 E0.109 F1080 ;straight
G1 X109.6 Y101.987 Z0.3 E0.109 F1080 ;straight
G1 X111.54 Y100.998 Z0.3 E0.109 F1080 ;straight
G1 X113.572 Y100.218 Z0.3 E0.109 F1080 ;straight
G1 X115.675 Y99.655 Z0.3 E0.109 F1080 ;straight
G1 X117.826 Y99.314 Z0.3 E0.109 F1080 ;straight
G1 X120.0 Y99.2 Z0.3 E0.109 F1080 ;straight
G1 X122.174 Y99.314 Z0.3 E0.0 F1080 ;slope
G1 E-5.0 F2700 ;retract
G1 X120.0 Y98.8 F2700
G1 Z0 F2700
G1 E5.0 F2700 ;unretract
G1 X122.216 Y98.916 Z0.3 E0.111 F1080 ;slope
G1 X124.408 Y99.263 Z0.3 E0.111 F1080 ;straight
G1 X126.551 Y99.838 Z0.3 E0.111 F1080 ;straight
G1 X128.623 Y100.633 Z0.3 E0.111 F1080 ;straight
G1 X130.6 Y101.64 Z0.3 E0.111 F1080 ;straight
G1 X132.461 Y102.849 Z0.3 E0.111 F1080 ;straight
G1 X134.186 Y104.245 Z0.3 E0.111 F1080 ;straight
G1 X135.755 Y105.814 Z0.3 E0.111 F1080 ;straight
G1 X137.151 Y107.539 Z0.3 E0.111 F1080 ;straight
G1 X138.36 Y109.4 Z0.3 E0.111 F1080 ;straight
G1 X139.367 Y111.377 Z0.3 E0.111 F1080 ;straight
G1 X140.162 Y113.449 Z0.3 E0.111 F1080 ;straight
G1 X140.737 Y115.592 Z0.3 E0.111 F1080 ;straight
G1 X141.084 Y117.784 Z0.3 E0.111 F1080 ;straight
G1 X141.2 Y120.0 Z0.3 E0.111 F1080 ;straight
G1 X141.084 Y122.216 Z0.3 E0.111 F1080 ;straight
G1 X140.737 Y124.408 Z0.3 E0.111 F1080 ;straight
G1 X140.162 Y126.551 Z0.3 E0.111 F1080 ;straight
G1 X139.367 Y128.623 Z0.3 E0.111 F1080 ;straight
G1 X138.36 Y130.6 Z0.3 E0.111 F1080 ;straight
G1 X137.151 Y132.461 Z0.3 E0.111 F1080 ;straight
G1 X135.755 Y134.186 Z0.3 E0.111 F1080 ;straight
G1 X134.186 Y135.755 Z0.3 E0.111 F1080 ;straight
G1 X132.461 Y137.151 Z0.3 E0.111 F1080 ;straight
G1 X130.6 Y138.36 Z0.3 E0.111 F1080 ;straight
G1 X128.623 Y139.367 Z0.3 E0.111 F1080 ;straight
G1 X126.551 Y140.162 Z0.3 E0.111 F1080 ;straight
G1 X124.408 Y140.737 Z0.3 E0.111 F1080 ;straight
G1 X122.216 Y141.084 Z0.3 E0.111 F1080 ;straight
G1 X120.0 Y141.2 Z0.3 E0.111 F1080 ;straight
G1 X117.784 Y141.084 Z0.3 E0.111 F1080 ;straight
G1 X115.592 Y140.737 Z0.3 E0.111 F1080 ;straight
G1 X113.449 Y140.162 Z0.3 E0.111 F1080 ;straight
G1 X111.377 Y139.367 Z0.3 E0.111 F1080 ;straight
G1 X109.4 Y138.36 Z0.3 E0.111 F1080 ;straight
G1 X107.539 Y137.151 Z0.3 E0.111 F1080 ;straight
G1 X105.814 Y135.755 Z0.3 E0.111 F1080 ;straight
G1 X104.245 Y134.186 Z0.3 E0.111 F1080 ;straight
G1 X102.849 Y132.461 Z0.3 E0.111 F1080 ;straight
G1 X101.64 Y130.6 Z0.3 E0.111 F1080 ;straight
G1 X100.633 Y128.623 Z0.3 E0.111 F1080 ;straight
G1 X99.838 Y126.551 Z0.3 E0.111 F1080 ;straight
G1 X99.263 Y124.408 Z0.3 E0.111 F1080 ;straight
G1 X98.916 Y122.216 Z0.3 E0.111 F1080 ;straight
G1 X98.8 Y120.0 Z0.3 E0.111 F1080 ;straight
G1 X98.916 Y117.784 Z0.3 E0.111 F1080 ;straight
G1 X99.263 Y115.592 Z0.3 E0.111 F1080 ;straight
G1 X99.838 Y113.449 Z0.3 E0.111 F1080 ;straight
G1 X100.633 Y111.377 Z0.3 E0.111 F1080 ;straight
G1 X101.64 Y109.4 Z0.3 E0.111 F1080 ;straight
G1 X102.849 Y107.539 Z0.3 E0.111 F1080 ;straight
G1 X104.245 Y105.814 Z0.3 E0.111 F1080 ;straight
G1 X105.814 Y104.245 Z0.3 E0.111 F1080 ;straight
G1 X107.539 Y102.849 Z0.3 E0.111 F1080 ;straight
G1 X109.4 Y101.64 Z0.3 E0.111 F1080 ;straight
G1 X111.377 Y100.633 Z0.3 E0.111 F1080 ;straight
G1 X113.449 Y99.838 Z0.3 E0.111 F1080 ;straight
G1 X115.592 Y99.263 Z0.3 E0.111 F1080 ;straight
G1 X117.784 Y98.916 Z0.3 E0.111 F1080 ;straight
G1 X120.0 Y98.8 Z0.3 E0.111 F1080 ;straight
G1 X122.216 Y98.916 Z0.3 E0.0 F1080 ;slope
M106 S256
;LAYER : Internal
G1 E-5.0 F2700 ;retract
G1 X120.0 Y100.0 F2700
G1 Z0.25 F2700
G1 E5.0 F2700 ;unretract
G1 X122.091 Y100.11 Z0.259 E0.003 F3000 ;slope
G1 X124.158 Y100.437 Z0.267 E0.006 F3000 ;slope
G1 X126.18 Y100.979 Z0.276 E0.009 F3000 ;slope
G1 X128.135 Y101.729 Z0.284 E0.012 F3000 ;slope
G1 X130.0 Y102.679 Z0.293 E0.015 F3000 ;slope
G1 X131.756 Y103.82 Z0.302 E0.018 F3000 ;slope
G1 X133.383 Y105.137 Z0.31 E0.021 F3000 ;slope
G1 X134.863 Y106.617 Z0.319 E0.024 F3000 ;slope
G1 X136.18 Y108.244 Z0.328 E0.027 F3000 ;slope
G1 X137.321 Y110.0 Z0.336 E0.03 F3000 ;slope
G1 X138.271 Y111.865 Z0.345 E0.033 F3000 ;slope
G1 X139.021 Y113.82 Z0.353 E0.036 F3000 ;slope
G1 X139.563 Y115.842 Z0.362 E0.039 F3000 ;slope
G1 X139.89 Y117.909 Z0.371 E0.042 F3000 ;slope
G1 X140.0 Y120.0 Z0.379 E0.045 F3000 ;slope
G1 X139.89 Y122.091 Z0.388 E0.048 F3000 ;slope
G1 X139.563 Y124.158 Z0.397 E0.051 F3000 ;slope
G1 X139.021 Y126.18 Z0.405 E0.054 F3000 ;slope
G1 X138.271 Y128.135 Z0.414 E0.057 F3000 ;slope
G1 X137.321 Y130.0 Z0.422 E0.06 F3000 ;slope
G1 X136.18 Y131.756 Z0.431 E0.063 F3000 ;slope
G1 X134.863 Y133.383 Z0.44 E0.066 F3000 ;slope
G1 X133.383 Y134.863 Z0.448 E0.069 F3000 ;slope
G1 X131.756 Y136.18 Z0.457 E0.072 F3000 ;slope
G1 X130.0 Y137.321 Z0.466 E0.075 F3000 ;slope
G1 X128.135 Y138.271 Z0.474 E0.078 F3000 ;slope
G1 X126.18 Y139.021 Z0.483 E0.081 F3000 ;slope
G1 X124.158 Y139.563 Z0.491 E0.084 F3000 ;slope
G1 X122.091 Y139.89 Z0.5 E0.087 F3000 ;slope
G1 X120.0 Y140.0 Z0.5 E0.087 F3000 ;straight
G1 X117.909 Y139.89 Z0.5 E0.087 F3000 ;straight
G1 X115.842 Y139.563 Z0.5 E0.087 F3000 ;straight
G1 X113.82 Y139.021 Z0.5 E0.087 F3000 ;straight
G1 X111.865 Y138.271 Z0.5 E0.087 F3000 ;straight
G1 X110.0 Y137.321 Z0.5 E0.087 F3000 ;straight
G1 X108.244 Y136.18 Z0.5 E0.087 F3000 ;straight
G1 X106.617 Y134.863 Z0.5 E0.087 F3000 ;straight
G1 X105.137 Y133.383 Z0.5 E0.087 F3000 ;straight
G1 X103.82 Y131.756 Z0.5 E0.087 F3000 ;straight
G1 X102.679 Y130.0 Z0.5 E0.087 F3000 ;straight
G1 X101.729 Y128.135 Z0.5 E0.087 F3000 ;straight
G1 X100.979 Y126.18 Z0.5 E0.087 F3000 ;straight
G1 X100.437 Y124.158 Z0.5 E0.087 F3000 ;straight
G1 X100.11 Y122.091 Z0.5 E0.087 F3000 ;straight
G1 X100.0 Y120.0 Z0.5 E0.087 F3000 ;straight
G1 X100.11 Y117.909 Z0.5 E0.087 F3000 ;straight
G1 X100.437 Y115.842 Z0.5 E0.087 F3000 ;straight
G1 X100.979 Y113.82 Z0.5 E0.087 F3000 ;straight
G1 X101.729 Y111.865 Z0.5 E0.087 F3000 ;straight
G1 X102.679 Y110.0 Z0.5 E0.087 F3000 ;straight
G1 X103.82 Y108.244 Z0.5 E0.087 F3000 ;straight
G1 X105.137 Y106.617 Z0.5 E0.087 F3000 ;straight
G1 X106.617 Y105.137 Z0.5 E0.087 F3000 ;straight
G1 X108.244 Y103.82 Z0.5 E0.087 F3000 ;straight
G1 X110.0 Y102.679 Z0.5 E0.087 F3000 ;straight
G1 X111.865 Y101.729 Z0.5 E0.087 F3000 ;straight
G1 X113.82 Y100.979 Z0.5 E0.087 F3000 ;straight
G1 X115.842 Y100.437 Z0.5 E0.087 F3000 ;straight
G1 X117.909 Y100.11 Z0.5 E0.087 F3000 ;straight
G1 X120.0 Y100.0 Z0.5 E0.087 F3000 ;straight
G1 X122.091 Y100.11 Z0.5 E0.084 F3000 ;slope
G1 X124.158 Y100.437 Z0.5 E0.081 F3000 ;slope
G1 X126.18 Y100.979 Z0.5 E0.078 F3000 ;slope
G1 X128.135 Y101.729 Z0.5 E0.075 F3000 ;slope
G1 X130.0 Y102.679 Z0.5 E0.072 F3000 ;slope
G1 X131.756 Y103.82 Z0.5 E0.069 F3000 ;slope
G1 X133.383 Y105.137 Z0.5 E0.066 F3000 ;slope
